frontend/src/images/share-twitter.svg

<svg width="50px" height="50px" viewBox="0 0 50 50" version="1.1" xmlns="http://www.w3.org/2000/svg" xmlns:xlink="http://www.w3.org/1999/xlink">
  <!-- Generator: Sketch 47.1 (45422) - http://www.bohemiancoding.com/sketch -->
  <title>logo_twitter</title>
  <desc>Created with Sketch.</desc>
  <defs></defs>
  <g id="Component_20170927" stroke="none" stroke-width="1" fill="none" fill-rule="evenodd">
    <g id="Modal" transform="translate(-420.000000, -3180.000000)">
      <g id="Group-5-Copy-2" transform="translate(145.000000, 3092.000000)">
        <g id="part5" transform="translate(90.000000, 50.000000)">
          <g id="logo_twitter" transform="translate(185.000000, 38.000000)">
            <polygon id="Fill-1" fill="#1DA1F2" points="0 50 50 50 50 0 0 0"></polygon>
            <path d="M19.0387871,37.9032258 C30.755579,37.9032258 37.1629726,28.130802 37.1629726,19.6569336 C37.1629726,19.3792433 37.1573839,19.1028032 37.1448403,18.8278636 C38.3885145,17.9227756 39.4696194,16.793385 40.3225806,15.5074575 C39.1812419,16.0178275 37.9528435,16.3619085 36.6644597,16.51707 C37.9795452,15.7232582 38.9893629,14.4669627 39.465521,12.9696105 C38.2343903,13.7041583 36.8717387,14.238534 35.4207855,14.5261016 C34.2583339,13.2796834 32.6028339,12.5 30.770979,12.5 C27.2528242,12.5 24.3999742,15.3720506 24.3999742,18.9125085 C24.3999742,19.4158769 24.4559855,19.905117 24.5652758,20.3747274 C19.2712774,20.1067894 14.5766371,17.5546891 11.4352855,13.6745263 C10.8877161,14.6219992 10.5725129,15.7232582 10.5725129,16.8977845 C10.5725129,19.1226829 11.6972097,21.0867699 13.4072306,22.2357902 C12.3623903,22.2034076 11.3806403,21.9143396 10.5220903,21.4334765 C10.5207242,21.4603578 10.5207242,21.4871141 10.5207242,21.5152457 C10.5207242,24.6214764 12.7167145,27.2143364 15.6312887,27.8023497 C15.0962629,27.9488842 14.5332935,28.0279028 13.9520677,28.0279028 C13.5416081,28.0279028 13.14245,27.9870181 12.7545935,27.9122505 C13.5654532,30.4600999 15.9169339,32.314161 18.7054516,32.3664233 C16.5247371,34.086578 13.778321,35.1115691 10.7938258,35.1115691 C10.2797887,35.1115691 9.77283065,35.0819371 9.27419355,35.0226732 C12.0935113,36.8416011 15.4407758,37.9032258 19.0387871,37.9032258" id="Fill-2" fill="#FFFFFF"></path>
          </g>
        </g>
      </g>
    </g>
  </g>
</svg>

<svg width="50" height="50" viewBox="0 0 50 50" xmlns="http://www.w3.org/2000/svg"><title>logo_twitter</title><g fill="none" fill-rule="evenodd"><path fill="#1DA1F2" d="M0 50h50V0H0z"/><path d="M19.039 37.903c11.717 0 18.124-9.772 18.124-18.246 0-.278-.006-.554-.018-.83a13.008 13.008 0 0 0 3.178-3.32c-1.142.51-2.37.855-3.659 1.01a6.428 6.428 0 0 0 2.802-3.547 12.712 12.712 0 0 1-4.045 1.556 6.344 6.344 0 0 0-4.65-2.026c-3.518 0-6.371 2.872-6.371 6.413 0 .503.056.992.165 1.462-5.294-.268-9.988-2.82-13.13-6.7a6.424 6.424 0 0 0-.862 3.223 6.42 6.42 0 0 0 2.834 5.338 6.29 6.29 0 0 1-2.885-.803l-.001.082c0 3.106 2.196 5.7 5.11 6.287a6.349 6.349 0 0 1-2.876.11c.81 2.548 3.162 4.402 5.95 4.454a12.728 12.728 0 0 1-7.911 2.746c-.514 0-1.021-.03-1.52-.09a17.946 17.946 0 0 0 9.765 2.881" fill="#FFF"/></g></svg>
